img/dzen-white.svg

<svg width="19" height="19" viewBox="0 0 19 19" fill="none" xmlns="http://www.w3.org/2000/svg">
<path d="M11.3201 18.838H9.72363C9.74758 18.2333 9.76868 17.6285 9.79718 17.0238C9.81771 16.5789 9.83538 16.133 9.87643 15.6893C9.91976 15.218 9.97906 14.7473 10.0509 14.2788C10.1214 13.803 10.2486 13.3371 10.43 12.8908C10.9375 11.6554 11.8263 10.8035 13.0875 10.3333C13.8242 10.0585 14.5961 9.94422 15.375 9.86764C15.7028 9.83498 16.0312 9.81133 16.3596 9.79106C16.8077 9.76403 17.2561 9.74132 17.7046 9.72293C18.0706 9.70716 18.4367 9.69984 18.8027 9.68802C18.8654 9.68802 18.9281 9.6807 18.9983 9.67676V9.77023C18.9943 10.3924 18.9937 11.0152 18.9857 11.6374C18.9715 12.7179 18.9361 13.7973 18.7634 14.8672C18.6835 15.4258 18.5314 15.9719 18.3107 16.4922C18.0723 17.03 17.7405 17.4951 17.2388 17.8284C16.8574 18.0768 16.4395 18.2656 15.9998 18.3881C15.2723 18.6004 14.5254 18.6995 13.7717 18.7445C13.0824 18.7862 12.3908 18.8008 11.7003 18.8245L11.3201 18.838Z" fill="white"/>
<path d="M0.240234 9.47483V7.89822C0.244225 7.79743 0.251067 7.69664 0.252778 7.59528C0.267602 6.51981 0.29896 5.4449 0.461453 4.379C0.539539 3.82516 0.681674 3.282 0.885074 2.76015C1.21348 1.94257 1.77337 1.35247 2.59552 0.997728C3.17138 0.751101 3.77459 0.612021 4.3915 0.520803C5.11425 0.418305 5.84282 0.360945 6.57289 0.349065C7.53017 0.328794 8.48745 0.326542 9.44473 0.316406H9.51429C9.51429 0.359763 9.51429 0.390732 9.51429 0.422265C9.49092 1.0028 9.46925 1.58333 9.44359 2.16386C9.42649 2.53661 9.41337 2.9105 9.37974 3.28212C9.33811 3.74666 9.28452 4.21064 9.22294 4.67348C9.15921 5.16179 9.04164 5.64175 8.8723 6.10482C8.5342 7.01813 7.97603 7.76477 7.15558 8.3132C6.58828 8.69215 5.95827 8.92133 5.29575 9.06716C4.71022 9.19309 4.116 9.27571 3.51803 9.31435C2.99007 9.35151 2.46154 9.38699 1.93301 9.41233C1.36742 9.43992 0.803542 9.45456 0.240234 9.47483Z" fill="white"/>
<path d="M0.240234 11.2543V9.67773C0.627936 9.69237 1.01621 9.70533 1.40391 9.72165C1.82069 9.73911 2.23804 9.75037 2.65425 9.77796C3.2206 9.81813 3.78619 9.86674 4.35102 9.9238C4.84255 9.97468 5.32805 10.0718 5.80091 10.2138C6.76332 10.5015 7.57692 11.0077 8.19554 11.8045C8.68073 12.4334 8.95783 13.1513 9.12317 13.9171C9.24179 14.4775 9.32047 15.0453 9.35864 15.6165C9.3957 16.1379 9.43162 16.6593 9.45728 17.1818C9.48464 17.7331 9.49947 18.2849 9.51999 18.8367H7.92357C7.84603 18.8328 7.76792 18.8266 7.69038 18.8255C6.53355 18.8108 5.37729 18.7849 4.23128 18.6042C3.66855 18.5152 3.11721 18.3829 2.59552 18.1509C2.14454 17.9538 1.74543 17.6954 1.43071 17.317C1.06125 16.8699 0.838322 16.3513 0.682101 15.8023C0.434085 14.9318 0.346853 14.0354 0.302951 13.1395C0.273303 12.5398 0.266461 11.9396 0.249357 11.3377C0.248787 11.3112 0.243085 11.2825 0.240234 11.2543Z" fill="white"/>
<path d="M9.72856 0.315704C10.053 0.315704 10.3677 0.312889 10.6824 0.315704C11.3341 0.323024 11.9864 0.327529 12.638 0.345547C13.4705 0.368633 14.3006 0.420436 15.1227 0.561768C15.6845 0.650058 16.2318 0.811569 16.7505 1.04207C17.5254 1.3985 18.0448 1.98353 18.3578 2.76114C18.5613 3.2829 18.7033 3.8261 18.7808 4.37998C18.9393 5.41717 18.9741 6.46336 18.9878 7.50899C18.9958 8.13119 18.9963 8.75339 19.0003 9.37559V9.46624C18.9815 9.46909 18.9624 9.47078 18.9433 9.47131C18.3705 9.44879 17.7975 9.42589 17.2243 9.40262C16.9022 9.3891 16.5806 9.37671 16.2591 9.35475C15.9375 9.33279 15.6233 9.30126 15.3052 9.27255C14.8085 9.22874 14.3156 9.15028 13.8302 9.03774C12.8729 8.81251 12.0206 8.39978 11.3404 7.68186C10.817 7.13004 10.4709 6.47913 10.2571 5.75614C10.1238 5.30672 10.0307 4.84661 9.97885 4.38111C9.9264 3.90982 9.87965 3.43796 9.84658 2.96554C9.81123 2.45877 9.79412 1.952 9.77189 1.44918C9.75592 1.10288 9.74395 0.755466 9.73084 0.408612C9.72514 0.381021 9.72856 0.352867 9.72856 0.315704Z" fill="white"/>
</svg>

<svg width="19" height="19" fill="none" xmlns="http://www.w3.org/2000/svg"><path d="M11.32 18.838H9.724c.024-.605.045-1.21.073-1.814.02-.445.038-.891.08-1.335.043-.471.102-.942.174-1.41.07-.476.198-.942.379-1.388.508-1.236 1.396-2.088 2.658-2.558.736-.274 1.508-.389 2.287-.465.328-.033.656-.057.985-.077a69.9 69.9 0 011.345-.068c.366-.016.732-.023 1.098-.035.062 0 .125-.007.195-.011v.093c-.004.622-.004 1.245-.012 1.867-.015 1.08-.05 2.16-.223 3.23a6.528 6.528 0 01-.452 1.625c-.239.538-.57 1.003-1.072 1.336-.382.249-.8.438-1.24.56-.727.212-1.474.311-2.227.356-.69.042-1.381.057-2.072.08l-.38.014zM.24 9.475V7.898c.004-.1.011-.201.013-.303C.268 6.52.299 5.445.46 4.38a7.26 7.26 0 01.424-1.619c.328-.817.888-1.408 1.71-1.762C3.172.75 3.776.612 4.392.52 5.114.418 5.843.36 6.573.349 7.53.33 8.487.327 9.445.316h.07v.106c-.024.58-.046 1.161-.071 1.742-.018.373-.03.746-.064 1.118-.042.465-.095.929-.157 1.391a6.687 6.687 0 01-.35 1.432c-.339.913-.897 1.66-1.717 2.208-.568.38-1.198.608-1.86.754a12.11 12.11 0 01-1.778.247c-.528.038-1.056.073-1.585.098-.566.028-1.13.043-1.693.063zm0 1.779V9.678c.388.014.776.027 1.164.044.417.017.834.028 1.25.056.567.04 1.132.089 1.697.146.492.05.977.148 1.45.29.962.287 1.776.794 2.395 1.59.485.63.762 1.347.927 2.113.119.56.197 1.128.236 1.7.037.52.073 1.042.098 1.565.028.551.042 1.103.063 1.655H7.924c-.078-.004-.156-.01-.234-.011-1.156-.015-2.313-.041-3.459-.222-.562-.089-1.114-.221-1.635-.453-.451-.197-.85-.456-1.165-.834-.37-.447-.593-.966-.749-1.515-.248-.87-.335-1.767-.379-2.662-.03-.6-.037-1.2-.054-1.802 0-.027-.006-.055-.009-.084zM9.729.316c.324 0 .639-.003.953 0 .652.007 1.304.012 1.956.03.832.023 1.663.074 2.485.216a6.49 6.49 0 011.627.48c.775.357 1.295.942 1.608 1.72.203.52.345 1.064.423 1.618.158 1.037.193 2.083.207 3.129.008.622.008 1.244.012 1.867v.09a.467.467 0 01-.057.005l-1.719-.068c-.322-.014-.643-.026-.965-.048-.322-.022-.636-.054-.954-.082-.496-.044-.99-.123-1.475-.235-.957-.225-1.81-.638-2.49-1.356-.523-.552-.87-1.203-1.083-1.926a7.918 7.918 0 01-.278-1.375c-.053-.471-.1-.943-.132-1.415-.036-.507-.053-1.014-.075-1.517-.016-.346-.028-.694-.041-1.04C9.725.38 9.729.353 9.729.316z" fill="#fff"/></svg>
